X:67
T:score157
L:1/8
Q:1/4=96
M:2/2
I:linebreak $
K:D
!f! agfe | dc B2 gfed | cB A2 fedc |$ BAGF GFED | A4!p! agfe | dc B2 gfed |$ cB A2 fedc | %7
 BAGF EDEC | MD4 z4 |] %9
